packages/icons/raw/imported/TravelRoom.svg

<svg width="32" height="32" viewBox="0 0 32 32" fill="none" xmlns="http://www.w3.org/2000/svg">
<path d="M21.5 10.9294L21.6565 11.4043C21.8615 11.3368 22 11.1453 22 10.9294H21.5ZM21.5 10.9029H22L22 10.8999L21.5 10.9029ZM16.0151 5.5L16.0169 5H16.0151V5.5ZM10.671 9.94617L10.1743 9.88844L10.1736 9.89544L10.671 9.94617ZM11.7069 11.1148L11.7726 10.6191C11.7561 10.617 11.7395 10.6156 11.7229 10.6151L11.7069 11.1148ZM13.3129 10.5818L13.6629 10.9389C13.6735 10.9285 13.6836 10.9176 13.6933 10.9063L13.3129 10.5818ZM13.7453 9.91969L14.1954 10.1374C14.2013 10.1253 14.2067 10.1129 14.2116 10.1003L13.7453 9.91969ZM16.0922 8.37362L16.0291 8.86963C16.0401 8.87102 16.051 8.87204 16.062 8.87271L16.0922 8.37362ZM17.6411 9.28404L18.0857 9.05517C18.0789 9.04207 18.0716 9.02927 18.0637 9.01682L17.6411 9.28404ZM16.5046 12.694L16.7249 13.1428C16.732 13.1394 16.739 13.1357 16.7459 13.1319L16.5046 12.694ZM12.0959 15.0512L11.8442 14.6191C11.8397 14.6217 11.8352 14.6245 11.8307 14.6272L12.0959 15.0512ZM11.3985 15.4915L11.6923 15.8961C11.8676 15.7688 11.941 15.5431 11.8741 15.337C11.8071 15.131 11.6151 14.9915 11.3985 14.9915V15.4915ZM10.5 23.5535H10L10 23.5547L10.5 23.5535ZM13.4805 26.5L13.4788 27H13.4805V26.5ZM18.5094 26.5V27L18.5111 27L18.5094 26.5ZM21.4899 23.5535L21.9899 23.5547V23.5535H21.4899ZM21.4899 10.9327L21.3335 10.4579C21.1285 10.5254 20.9899 10.7169 20.9899 10.9327H21.4899ZM19.4717 19.7829L19.9717 19.7829L19.4717 19.7829ZM16.0151 16.3531L16.0127 16.8531L16.0151 16.3531ZM14.7216 19.2598C14.506 19.0873 14.1913 19.1222 14.0188 19.3378C13.8463 19.5534 13.8812 19.8681 14.0968 20.0406L14.7216 19.2598ZM15.824 20.7825L15.5116 21.1728C15.6159 21.2563 15.7492 21.2946 15.8819 21.2791C16.0146 21.2636 16.1356 21.1957 16.2179 21.0905L15.824 20.7825ZM18.0249 18.7796C18.195 18.5621 18.1566 18.2479 17.9391 18.0778C17.7215 17.9077 17.4073 17.9461 17.2372 18.1636L18.0249 18.7796ZM22 10.9294V10.9029H21V10.9294H22ZM22 10.8999C21.9903 9.33352 21.3549 7.83554 20.2338 6.73124L19.5321 7.44365C20.4652 8.36283 20.992 9.60727 21 10.906L22 10.8999ZM20.2338 6.73124C19.113 5.62714 17.5974 5.00568 16.0169 5L16.0133 6C17.3343 6.00474 18.5987 6.52425 19.5321 7.44365L20.2338 6.73124ZM16.0151 5C12.9727 5 10.5229 6.88915 10.1743 9.88844L11.1676 10.0039C11.4493 7.58038 13.4049 6 16.0151 6V5ZM10.1736 9.89544C10.1517 10.1094 10.1747 10.3255 10.2409 10.5301L11.1924 10.2222C11.1688 10.1494 11.1607 10.0727 11.1684 9.99691L10.1736 9.89544ZM10.2409 10.5301C10.3072 10.7348 10.4151 10.9233 10.5578 11.0843L11.3061 10.421C11.2545 10.3627 11.2159 10.295 11.1924 10.2222L10.2409 10.5301ZM10.5578 11.0843C10.7005 11.2452 10.8748 11.3751 11.0697 11.4662L11.4931 10.5603C11.4213 10.5267 11.3578 10.4792 11.3061 10.421L10.5578 11.0843ZM11.0697 11.4662C11.2645 11.5573 11.476 11.6077 11.691 11.6146L11.7229 10.6151C11.6431 10.6125 11.5648 10.5938 11.4931 10.5603L11.0697 11.4662ZM11.6413 11.6105C12.0074 11.659 12.3799 11.6238 12.7302 11.5075L12.4152 10.5584C12.2087 10.6269 11.9888 10.6478 11.7726 10.6191L11.6413 11.6105ZM12.7302 11.5075C13.0806 11.3912 13.3998 11.1968 13.6629 10.9389L12.9628 10.2248C12.809 10.3755 12.6218 10.4898 12.4152 10.5584L12.7302 11.5075ZM13.6933 10.9063C13.8929 10.6723 14.0617 10.4139 14.1954 10.1374L13.2953 9.70195C13.1988 9.90137 13.0769 10.088 12.9325 10.2573L13.6933 10.9063ZM14.2116 10.1003C14.4579 9.46449 14.7114 9.15855 14.9589 9.00675C15.2013 8.85809 15.5227 8.80525 16.0291 8.86963L16.1553 7.87761C15.5419 7.79964 14.9547 7.83619 14.4361 8.15433C13.9225 8.46933 13.5625 9.0076 13.2791 9.73906L14.2116 10.1003ZM16.062 8.87271C16.2965 8.8869 16.5238 8.95621 16.7251 9.07448L17.2318 8.21238C16.8942 8.01392 16.5138 7.89822 16.1224 7.87454L16.062 8.87271ZM16.7251 9.07448C16.9262 9.19274 17.0953 9.35637 17.2185 9.55127L18.0637 9.01682C17.8548 8.68648 17.5694 8.41084 17.2318 8.21238L16.7251 9.07448ZM17.1966 9.51292C17.433 9.97218 17.4789 10.3548 17.4386 10.6679C17.3976 10.9862 17.2628 11.267 17.0874 11.5077C16.9112 11.7495 16.7019 11.9399 16.5327 12.071C16.4491 12.1359 16.3777 12.1844 16.3289 12.2158C16.3046 12.2314 16.286 12.2427 16.2746 12.2494C16.2689 12.2528 16.265 12.2551 16.263 12.2562C16.2621 12.2567 16.2616 12.257 16.2616 12.257C16.2616 12.257 16.2618 12.2569 16.262 12.2568C16.2622 12.2567 16.2623 12.2566 16.2626 12.2565C16.2627 12.2564 16.2628 12.2563 16.2629 12.2563C16.2631 12.2562 16.2633 12.2561 16.5046 12.694C16.7459 13.1319 16.7461 13.1318 16.7463 13.1317C16.7464 13.1316 16.7466 13.1315 16.7468 13.1314C16.7471 13.1312 16.7475 13.131 16.7479 13.1308C16.7487 13.1303 16.7497 13.1298 16.7508 13.1292C16.753 13.1279 16.7557 13.1264 16.759 13.1245C16.7655 13.1208 16.7741 13.1158 16.7846 13.1096C16.8056 13.0971 16.8344 13.0796 16.8695 13.0571C16.9395 13.0121 17.0354 12.9467 17.1456 12.8612C17.364 12.6919 17.6481 12.4363 17.8956 12.0967C18.1439 11.756 18.363 11.3198 18.4304 10.7955C18.4986 10.2658 18.4074 9.68014 18.0857 9.05517L17.1966 9.51292ZM16.2843 12.2452C15.125 12.8142 14.0155 13.4074 13.1967 13.8578C12.7871 14.0832 12.4496 14.2732 12.2142 14.4069C12.0965 14.4738 12.0044 14.5267 11.9415 14.5629C11.91 14.581 11.8859 14.595 11.8695 14.6044C11.8613 14.6092 11.8551 14.6128 11.8508 14.6152C11.8487 14.6165 11.8471 14.6174 11.846 14.6181C11.8454 14.6184 11.845 14.6186 11.8447 14.6188C11.8446 14.6189 11.8445 14.619 11.8444 14.619C11.8443 14.619 11.8443 14.6191 11.8443 14.6191C11.8442 14.6191 11.8442 14.6191 12.0959 15.0512C12.3475 15.4832 12.3475 15.4832 12.3475 15.4832C12.3475 15.4832 12.3475 15.4832 12.3475 15.4832C12.3476 15.4832 12.3477 15.4831 12.3478 15.4831C12.348 15.4829 12.3483 15.4827 12.3488 15.4825C12.3497 15.4819 12.3512 15.4811 12.3531 15.48C12.357 15.4777 12.3629 15.4743 12.3707 15.4698C12.3864 15.4607 12.4098 15.4472 12.4405 15.4295C12.5019 15.3941 12.5924 15.3422 12.7084 15.2763C12.9403 15.1445 13.2737 14.9568 13.6787 14.734C14.4894 14.2881 15.5842 13.7027 16.7249 13.1428L16.2843 12.2452ZM12.0959 15.0512C11.8307 14.6272 11.8307 14.6272 11.8307 14.6272C11.8307 14.6272 11.8307 14.6273 11.8307 14.6273C11.8307 14.6273 11.8306 14.6273 11.8306 14.6273C11.8305 14.6274 11.8304 14.6275 11.8302 14.6276C11.8299 14.6278 11.8294 14.6281 11.8287 14.6285C11.8273 14.6294 11.8254 14.6306 11.8228 14.6322C11.8176 14.6355 11.81 14.6402 11.8004 14.6462C11.7811 14.6583 11.7535 14.6755 11.7205 14.6962C11.6545 14.7376 11.5665 14.7928 11.4786 14.848C11.3909 14.9031 11.3028 14.9586 11.2368 15.0005C11.204 15.0213 11.1755 15.0395 11.1549 15.0527C11.1452 15.0591 11.1347 15.0659 11.1259 15.0718C11.1227 15.074 11.1139 15.0799 11.1041 15.0871C11.1025 15.0883 11.0852 15.1007 11.0656 15.1183C11.0597 15.1236 11.0494 15.133 11.0373 15.1456C11.0287 15.1546 11.0021 15.1827 10.9758 15.2243C10.9623 15.247 10.9338 15.3069 10.9205 15.3446C10.9059 15.4055 10.9034 15.5619 10.9255 15.6535C11.0417 15.9928 11.3797 15.9915 11.3985 15.9915V14.9915C11.4385 14.9931 11.5395 15.0118 11.5984 15.0332C11.681 15.0789 11.8232 15.2277 11.8715 15.3294C11.8935 15.421 11.891 15.5774 11.8764 15.6382C11.8632 15.6759 11.8346 15.7358 11.8211 15.7585C11.7949 15.8001 11.7684 15.828 11.7598 15.837C11.7478 15.8495 11.7376 15.8588 11.7318 15.864C11.7127 15.8811 11.6962 15.893 11.6957 15.8933C11.6912 15.8967 11.6878 15.899 11.6867 15.8997C11.6854 15.9007 11.6845 15.9012 11.6845 15.9012C11.6845 15.9013 11.6847 15.9011 11.6855 15.9006C11.6861 15.9002 11.6871 15.8996 11.6883 15.8987C11.6908 15.8971 11.6941 15.895 11.6981 15.8924C11.7148 15.8816 11.7402 15.8653 11.7725 15.8449C11.8366 15.8042 11.9232 15.7496 12.0107 15.6947C12.098 15.6398 12.1856 15.5849 12.2514 15.5437C12.2843 15.5231 12.3117 15.5059 12.3309 15.4939C12.3405 15.4879 12.348 15.4832 12.3531 15.48C12.3557 15.4784 12.3577 15.4772 12.359 15.4763C12.3596 15.4759 12.3601 15.4756 12.3605 15.4754C12.3606 15.4753 12.3608 15.4752 12.3609 15.4752C12.3609 15.4751 12.3609 15.4751 12.3609 15.4751C12.361 15.4751 12.361 15.4751 12.361 15.4751C12.361 15.4751 12.361 15.4751 12.0959 15.0512ZM11.1047 15.0869C10.6267 15.434 10.3391 15.8397 10.1793 16.2853C10.0246 16.717 10 17.1598 10 17.5606H11C11 17.1901 11.0257 16.8879 11.1207 16.6227C11.2108 16.3715 11.3724 16.1283 11.6923 15.8961L11.1047 15.0869ZM10 17.5606V23.5535H11V17.5606H10ZM10 23.5547C10.0021 24.4692 10.3707 25.3444 11.0232 25.9895L11.7262 25.2783C11.2618 24.8192 11.0015 24.1986 11 23.5524L10 23.5547ZM11.0232 25.9895C11.6755 26.6344 12.5585 26.9969 13.4788 27L13.4822 26C12.822 25.9978 12.1909 25.7377 11.7262 25.2783L11.0232 25.9895ZM13.4805 27H18.5094V26H13.4805V27ZM18.5111 27C19.4315 26.9969 20.3144 26.6344 20.9667 25.9895L20.2637 25.2783C19.7991 25.7377 19.1679 25.9978 18.5078 26L18.5111 27ZM20.9667 25.9895C21.6193 25.3444 21.9879 24.4692 21.9899 23.5547L20.9899 23.5524C20.9885 24.1986 20.7281 24.8192 20.2637 25.2783L20.9667 25.9895ZM21.9899 23.5535V10.9327H20.9899V23.5535H21.9899ZM21.6464 11.4076L21.6565 11.4043L21.3435 10.4545L21.3335 10.4579L21.6464 11.4076ZM18.9717 19.7829C18.9717 20.3616 18.7977 20.9277 18.4712 21.4097L19.299 21.9706C19.7373 21.3238 19.9717 20.5624 19.9717 19.7829L18.9717 19.7829ZM18.4712 21.4097C18.1446 21.8917 17.6798 22.2681 17.1349 22.4902L17.5123 23.4162C18.2388 23.1201 18.8608 22.6173 19.299 21.9706L18.4712 21.4097ZM17.1349 22.4902C16.59 22.7123 15.9902 22.7698 15.4118 22.6551L15.2173 23.636C15.9873 23.7887 16.786 23.7123 17.5123 23.4162L17.1349 22.4902ZM15.4118 22.6551C14.8334 22.5405 14.3034 22.259 13.8886 21.8473L13.1842 22.5572C13.7395 23.1082 14.4472 23.4833 15.2173 23.636L15.4118 22.6551ZM13.8886 21.8473C13.4738 21.4358 13.1928 20.9127 13.0802 20.3446L12.0993 20.5391C12.2509 21.3039 12.6288 22.0061 13.1842 22.5572L13.8886 21.8473ZM13.0802 20.3446C12.9675 19.7766 13.0282 19.1883 13.2546 18.654L12.3339 18.2638C12.0294 18.9823 11.9476 19.7743 12.0993 20.5391L13.0802 20.3446ZM13.2546 18.654C13.4811 18.1196 13.8635 17.6626 14.3545 17.3416L13.8073 16.5046C13.1514 16.9334 12.6383 17.5454 12.3339 18.2638L13.2546 18.654ZM14.3545 17.3416C14.8455 17.0206 15.4226 16.8503 16.0127 16.8531L16.0175 15.8531C15.2322 15.8494 14.463 16.0759 13.8073 16.5046L14.3545 17.3416ZM16.0127 16.8531C16.8008 16.8569 17.5541 17.1687 18.1081 17.7185L18.8125 17.0086C18.071 16.2729 17.0659 15.8581 16.0175 15.8531L16.0127 16.8531ZM18.1081 17.7185C18.6619 18.268 18.9717 19.0104 18.9717 19.7829L19.9717 19.7829C19.9717 18.7419 19.5541 17.7446 18.8125 17.0086L18.1081 17.7185ZM14.0968 20.0406L15.5116 21.1728L16.1364 20.3921L14.7216 19.2598L14.0968 20.0406ZM16.2179 21.0905L18.0249 18.7796L17.2372 18.1636L15.4301 20.4744L16.2179 21.0905Z" fill="black"/>
</svg>

<svg width="32" height="32" fill="none" xmlns="http://www.w3.org/2000/svg"><path d="m21.5 10.93.157.474A.5.5 0 0 0 22 10.93h-.5Zm0-.027h.5V10.9l-.5.003ZM16.015 5.5l.002-.5h-.002v.5Zm-5.344 4.446-.497-.058v.007l.497.051Zm1.036 1.169.066-.496a.517.517 0 0 0-.05-.004l-.016.5Zm1.606-.533.35.357a.52.52 0 0 0 .03-.033l-.38-.324Zm.432-.662.45.217a.49.49 0 0 0 .017-.037l-.467-.18Zm2.347-1.546-.063.496a.508.508 0 0 0 .033.003l.03-.5Zm1.55.91.444-.229a.51.51 0 0 0-.022-.038l-.423.267Zm-1.137 3.41.22.449a.417.417 0 0 0 .02-.011l-.24-.438Zm-4.41 2.357-.25-.432-.014.008.265.424Zm-.697.44.294.405a.5.5 0 0 0-.293-.905v.5Zm-.898 8.063H10h.5Zm2.98 2.946-.001.5h.002v-.5Zm5.03 0v.5h.001l-.002-.5Zm2.98-2.947.5.002v-.002h-.5Zm0-12.62-.156-.475a.5.5 0 0 0-.344.475h.5Zm-2.018 8.85h.5-.5Zm-3.457-3.43-.002.5.002-.5Zm-1.293 2.907a.5.5 0 0 0-.625.78l.625-.78Zm1.102 1.522-.312.39a.5.5 0 0 0 .706-.082l-.394-.308Zm2.2-2.002a.5.5 0 1 0-.787-.616l.788.616ZM22 10.93v-.027h-1v.026h1Zm0-.03a5.902 5.902 0 0 0-1.766-4.169l-.702.713A4.902 4.902 0 0 1 21 10.906l1-.006ZM20.234 6.73A6.04 6.04 0 0 0 16.017 5l-.004 1a5.04 5.04 0 0 1 3.52 1.444l.7-.713ZM16.015 5c-3.042 0-5.492 1.89-5.84 4.888l.993.116C11.449 7.58 13.405 6 16.015 6V5Zm-5.841 4.895c-.022.214 0 .43.067.635l.951-.308a.55.55 0 0 1-.024-.225l-.994-.102Zm.067.635c.066.205.174.393.317.554l.748-.663a.56.56 0 0 1-.114-.199l-.951.308Zm.317.554c.143.161.317.291.512.382l.423-.906a.577.577 0 0 1-.187-.139l-.748.663Zm.512.382c.194.091.406.142.621.149l.032-1a.589.589 0 0 1-.23-.055l-.423.906Zm.571.145a2.44 2.44 0 0 0 1.09-.104l-.316-.949a1.44 1.44 0 0 1-.642.061l-.132.992Zm1.09-.104c.35-.116.669-.31.932-.568l-.7-.714c-.154.15-.341.265-.548.333l.315.95Zm.962-.6a3.6 3.6 0 0 0 .502-.77l-.9-.435c-.096.2-.218.386-.363.555l.761.65Zm.519-.807c.246-.636.5-.941.747-1.093.242-.149.564-.202 1.07-.137l.126-.992c-.613-.078-1.2-.042-1.719.276-.514.315-.873.854-1.157 1.585l.933.361Zm1.85-1.227c.235.014.462.083.663.201l.507-.862a2.486 2.486 0 0 0-1.11-.337l-.06.998Zm.663.201c.201.119.37.282.493.477l.846-.534a2.457 2.457 0 0 0-.832-.805l-.507.862Zm.472.439c.236.46.282.842.242 1.155-.041.318-.176.599-.352.84a2.862 2.862 0 0 1-.824.748l-.001.001.243.437.241.438.002-.001.003-.002.008-.005a1.94 1.94 0 0 0 .11-.067 3.862 3.862 0 0 0 1.026-.96c.249-.341.468-.777.535-1.302.069-.53-.023-1.115-.344-1.74l-.89.458Zm-.913 2.732a76.585 76.585 0 0 0-4.342 2.318l-.072.041a1.185 1.185 0 0 1-.02.011l-.004.003h-.001v.001l.25.432.252.432h.002l.004-.003.018-.01a40.286 40.286 0 0 1 .337-.194 80.692 80.692 0 0 1 4.017-2.133l-.44-.898Zm-4.188 2.806-.265-.424-.002.002a.355.355 0 0 1-.006.003l-.023.014c-.019.012-.046.03-.08.05l-.241.152a65.988 65.988 0 0 0-.324.205l-.03.019-.02.015a.525.525 0 0 0-.128.137.902.902 0 0 0-.056.12.88.88 0 0 0 .005.31c.116.339.454.338.473.338v-1c.04.001.14.02.2.041a.867.867 0 0 1 .272.296c.022.092.02.248.005.31a.495.495 0 0 1-.19.261l-.002.001h.002l.002-.002.01-.007a55.99 55.99 0 0 1 .553-.349l.08-.05.022-.013.006-.004a.015.015 0 0 1 .002 0l-.265-.425Zm-.991.036c-.478.347-.766.753-.926 1.198-.154.432-.179.875-.179 1.276h1c0-.37.026-.673.12-.938.09-.252.252-.495.572-.727l-.587-.81ZM10 17.56v5.992h1v-5.992h-1Zm0 5.994c.002.914.37 1.79 1.023 2.434l.703-.71A2.435 2.435 0 0 1 11 23.551l-1 .003Zm1.023 2.434A3.51 3.51 0 0 0 13.48 27l.003-1a2.51 2.51 0 0 1-1.756-.722l-.703.712ZM13.48 27h5.03v-1h-5.03v1Zm5.031 0a3.51 3.51 0 0 0 2.456-1.01l-.703-.712a2.51 2.51 0 0 1-1.756.722l.003 1Zm2.456-1.01a3.434 3.434 0 0 0 1.023-2.435l-1-.003a2.434 2.434 0 0 1-.726 1.726l.703.712Zm1.023-2.436V10.932h-1v12.62h1Zm-.344-12.146.01-.004-.313-.95-.01.004.313.95Zm-2.674 8.375a2.9 2.9 0 0 1-.5 1.627l.827.56a3.899 3.899 0 0 0 .673-2.187h-1Zm-.5 1.627a2.964 2.964 0 0 1-1.337 1.08l.377.926a3.964 3.964 0 0 0 1.787-1.445l-.828-.561Zm-1.337 1.08a3.014 3.014 0 0 1-1.723.165l-.195.981c.77.153 1.569.076 2.295-.22l-.377-.926Zm-1.723.165a2.985 2.985 0 0 1-1.523-.808l-.705.71a3.987 3.987 0 0 0 2.033 1.079l.195-.98Zm-1.523-.808a2.916 2.916 0 0 1-.809-1.502l-.98.194c.15.765.529 1.467 1.084 2.018l.705-.71Zm-.809-1.502a2.89 2.89 0 0 1 .175-1.691l-.921-.39a3.89 3.89 0 0 0-.235 2.275l.981-.194Zm.175-1.691a2.94 2.94 0 0 1 1.1-1.312l-.548-.837a3.94 3.94 0 0 0-1.473 1.759l.92.39Zm1.1-1.312a3.005 3.005 0 0 1 1.658-.489l.004-1a4.005 4.005 0 0 0-2.21.652l.547.837Zm1.658-.489a2.995 2.995 0 0 1 2.095.865l.704-.71a3.996 3.996 0 0 0-2.795-1.155l-.004 1Zm2.095.865c.554.55.864 1.292.864 2.065h1a3.908 3.908 0 0 0-1.16-2.774l-.704.71Zm-4.011 2.323 1.415 1.132.624-.78-1.414-1.133-.625.78Zm2.12 1.05 1.808-2.311-.788-.616-1.807 2.31.788.616Z" fill="#000"/></svg>
